X: 262
T:Falling off a Cliff
Z:Lesl
M:C|
L:1/8
R: Reel
K:D
fedB ~A3D|FEDF A2Ad|fedB A2AD|FEDE FE~e2|
fedB A2AD|FEDF A2Ad|fedf ~a3b|afed BAF2:|2 afed BAFA||
|:d2fd Adfd|~a3b afef|d2fd Adf2|afed BAFA|
d2fd Adfd|~a3b azfa |bafe e2fe|dBAF FE~e2:|D8||
<end>
<start>
